X:1
T:Moment Musical No.1 in Bb Minor
T:Moment Musical No. 1 in B♭ Minor
T:from Moments Musicaux, Op.16
T:Sergei Rachmaninoff (1873-1943) 
C:Sergei Rachmaninoff (1872-1943)
%%score { ( 1 3 5 ) | ( 2 4 ) }
L:1/8
Q:1/4=72
M:4/4
K:Db
V:1 treble nm="Piano" snm="Pno."
V:3 treble 
V:5 treble 
V:2 bass 
V:4 bass 
V:1
"^Andantino." z8 | z (dF=G =A B2 c- |"_cresc." cd e=e f!mf!!>(! g2 f-)!>)! |!p! f(e dc e f2 e-) | %4
 e(d cB d e2 d) | z (cB=G =A B2 c- |"_cresc." cd e=e f!f!!>(! g2 f-)!>)! |!mf! f(e dc e f2 e-) | %8
"_dim." e(d cB d e2 d) |!p! z (fAB c d2 e-) |"_cresc." e(f ga b!mf!!>(! a2 g-)!>)! | %11
!p! g(f A=A"_cresc." B c2 =d-) | %12
!f! =d!tenuto!e !tenuto!f!tenuto!g (ba)[Q:1/4=60]"_rit. e dim."{/ga} (3:2:2(g2[Q:1/4=48] f | %13
!p![Q:1/4=72]"^\n" g2) (Bc"_cresc." =d e2 f-) | %14
 f(g fe) (3!tenuto!d!tenuto!c!tenuto!d (3!tenuto!e!tenuto!f!tenuto!g |!mf! a2 (c=d =e f2 =g-) | %16
 g!tenuto!a !tenuto!_g!tenuto!f!<(!{ef} (3!tenuto!e!tenuto!=d!tenuto!e (3!tenuto!f!tenuto!g!tenuto!a!<)! | %17
!f! b2 !tenuto!c!tenuto!d !tenuto!e!tenuto!f (3!>!g!>!a!>!=a | %18
"_cresc." (!>!bB) !tenuto!c!tenuto!=d (3!>!e!>!f!>!g (3!>!f!>!g!>!a |!ff!"_dim." [gb]8- | %20
!p! [gb] z z2 z4 | z!mf! (BB,C =D E2 F- | %22
 F!tenuto!G !tenuto!A!tenuto!=A !tenuto!B !>!_c2 !tenuto!=c) |!pp! z (dF=G =A B2 c- | %24
 cd e=e f g2 f-) | f(e dc e f2 e-) | e(d cB d e2 d-) | d(c B=G =A B2 c- | cd e=e f g2 f-) | %29
 f(e dc e f2 e-) | e(d cB d e2 d-) | d(c B=G =A B2 _A | _GF ED =E F2) (_E | DB, =G,=A, B, C2 D-) | %34
 (DB, =G,=A, B, C2 D-) | D !tenuto!C2 !tenuto!B,2 !tenuto!=A,!tenuto!=G,!tenuto!A, | %36
 (!tenuto!=A,B,)(!tenuto!A,B,) (!tenuto!D!tenuto!C!tenuto!B,!tenuto!A,) || %37
[K:Gb][M:7/4]!mf![Q:1/4=76]"^Con moto." z (B=CD (3:2:2G2 F) (3(EFG (3:2:2A2 G)"_cresc." (3(FGA (3BAG) | %38
!f!!<(! (3(ABa!<)!!ff! (3:2:2g2 f)"_dim." (3(ede{de} (3dcB!p! c2-) (3c!tenuto!B!tenuto!A (3!tenuto!G!tenuto!=F!tenuto!_E | %39
[M:3/4] !tenuto!B2 (AG (3FED) | %40
[M:7/4]!mf! z (B=CD (3:2:2G2 F) (3(EFG (3:2:2A2 G)"_cresc." (3(FGA (3BAG) | %41
[M:4/4]!f!!<(! (3(ABc'!<)!!ff! (3:2:2b2 a)"_dim." (3(gfg (3:2:2_e2 d) | %42
 (3z (=cB (3cdf (3edc!p! (3:2:2!tenuto!d2 B) | %43
[M:7/4]!f! z2 !tenuto![Ece]4 !tenuto![cac']2 z2 (3(efg !>!af) | %44
 z2 (!tenuto![Ece]2 !tenuto![Aea]2 !tenuto![cac']2) z2 (3(efg !>!af) | %45
[M:6/4] z2 !tenuto![^F=d^f]4 !tenuto![d=b=d']2 (3(^f^g=a !>!b^g) | %46
[M:5/4] z2 (!tenuto![^F=d^f]2 !tenuto![d=b=d']2) (3(^f^g=a !>!b^g) | %47
!f! z (^c ^D=E (3:2:2=A2 ^G)!>(! (3(_A=G_G (3:2:2=G2 _E)!>)! | %48
!mf! z (=c =DE (3:2:2A2 =G)!>(! (3(G^F=F (3:2:2^F2 =D)!>)! | %49
[M:4/4]"_dim." (=B2 ^C=D)[Q:1/4=70]"_rit." (3(_GF=E[Q:1/4=60] (3:2:2F2 _D) | %50
[M:7/4]!p![Q:1/4=74] z (_B =CD (3:2:2G2 F) (3(EFG (3:2:2A2 G) (3(FGA (3BAG) | %51
!>(! (3(ABa!>)!!pp! (3gfg e2){de} (3(dcB c2-) (3c!tenuto!B!tenuto!A (3!tenuto!G!tenuto!=F!tenuto!_E | %52
[M:3/4] (B2 AG (3FED) |[M:7/4]!mf! z (B =CD (3:2:2G2 F) (3(EFG (3:2:2A2 G) (3(FGA (3BAG) | %54
[Q:1/4=90]"_cresc." (3(ABa[Q:1/4=95] (3gfe)[Q:1/4=100] (3(=cd_c'[Q:1/4=105] (3bag)[Q:1/4=110] (3(fge'[Q:1/4=115] (3d'c'b)[Q:1/4=120] (3(=ab_a'[Q:1/4=125] (3g'f'e')[Q:1/4=130]!8va(! (3(=c'd'_c''[Q:1/4=135] (3b'a'g')[Q:1/4=140] (3(=c'd'_c''[Q:1/4=145] (3b'a'g')[Q:1/4=150] (=c'/d'/_c''/b'/[Q:1/4=155] d'/=d'/c''/b'/[Q:1/4=160] d'/e'/c''/b'/[Q:1/4=165] e'/=e'/c''/b'/ | %55
[Q:1/4=170] =e'/f'/c''/b'/[Q:1/4=175] f'/g'/c''/b'/)!f!"_veloce"[Q:1/4=180] =a'/b'/e''/d''/ a'/b'/e''/d''/ a'/b'/e''/d''/ a'/b'/e''/d''/ a'/b'/e''/d''/ a'/b'/e''/d''/ a'/b'/e''/d''/ a'/b'/e''/d''/ _a'/=a'/ b'/e''/d''/b'/_a'/g'/ (9:8:9=e'/f'/ g'/d''/b'/g'/f'/_e'/d'/ | %56
 (9:8:9c'/=c'/ d'/b'/g'/e'/d'/_c'/b/!8va)! a/=a/ b/e'/d'/b/_a/g/ (9:8:9=e/f/ g/d'/b/g/f/_e/d/ (9:8:9c/=c/ d/b/g/e/d/_c/B/ (6:4:6_A/=A/ B/d/c/B/ (6:4:6=E/F/ G/B/_A/G/ | %57
 (6:4:6_C/=C/ D/G/E/D/ (6:4:6_A,/=A,/ B,/D/_C/B,/[K:bass] (6:4:6=E,/F,/ G,/B,/_A,/G,/ (6:4:6E,/F,/ G,/B,/A,/G,/[Q:1/4=160]"_rit." (5:4:5F,/G,/B,/A,/G,/[Q:1/4=150] (5:4:5F,/G,/B,/A,/G,/[Q:1/4=140] (5:4:5F,/G,/B,/A,/G,/[Q:1/4=130] (5:4:5F,/G,/B,/A,/G,/[Q:1/4=120] (!tenuto!F,!tenuto!G,[Q:1/4=110]!tenuto!=A,!tenuto!B,[K:treble][Q:1/4=100]!tenuto!C!tenuto!D[Q:1/4=90]!tenuto!=D!tenuto!E)!mf![Q:1/4=80] (=E3 =c) || %58
[K:Db][M:4/4][Q:1/4=84]"^Andantino con moto."!p! [=A,Fc] (3(=A/F/=B,/ (6:4:6C/A,/C/=D/=E/F/ (6:4:6E/C/E/F/=G/A/ (6:4:6c/B/A/G/F/E/ | %59
 [F=A]) (3(A/F/=B,/ (6:4:6C/=A,/C/=D/=E/F/ (6:4:6E/C/E/F/=G/A/ (6:4:6c/B/A/G/F/E/ | %60
 [F=A]) (3(F/A/B/ (6:4:6A/F/=E/F/A/B/ (6:4:6A/F/E/F/A/B/ (6:4:6A/F/E/F/A/B/ | %61
 (6:4:6=A/F/=E/F/A/B/ (6:4:6A/F/E/F/A/B/ (6:4:6A/F/E/F/A/B/ (6:4:6A/F/E/F/A/B/) | %62
!pp! z (3(d/B/=E/ (6:4:6F/D/F/=G/=A/B/ (6:4:6A/F/A/B/c/d/ (6:4:6f/e/d/c/B/G/ | %63
 (6:4:6=A/B/c/d/e/f/ (6:4:6e/B/d/=e/f/g/ (6:4:6f/d/f/g/a/b/ (6:4:6d'/b/g/f/e/d/) | %64
 z (3(e/f/e/ (6:4:6d/B/=A/c/d/=d/ (6:4:6e/d/e/f/g/=a/ (6:4:6b/a/g/e/_d/c/) | %65
 z (3(d/e/d/ (6:4:6c/=A/G/B/_c/=c/ (6:4:6d/c/d/e/f/g/ (6:4:6=a/f/e/d/c/A/) | %66
 z (3(c/d/c/ (6:4:6B/=E/F/G/B/d/ (6:4:6=A/=G/A/B/c/d/ (6:4:6f/e/d/c/B/G/ | %67
 (6:4:6=A/B/c/d/e/f/ (6:4:6e/B/d/=e/f/g/ (6:4:6f/d/f/g/a/b/ (6:4:6d'/b/g/f/_e/d/) | %68
 z (3(e/f/e/ (6:4:6d/c/B/c/d/=d/ (6:4:6e/d/e/f/g/a/ (6:4:6b/a/g/e/_d/c/) | %69
 z (3(d/e/d/ (6:4:6c/B/A/B/_c/=c/ (6:4:6d/c/d/e/=e/=g/ (6:4:6a/f/_e/d/B/A/) | %70
 z (3(f/d/=G/ (6:4:6A/F/A/B/c/d/ (6:4:6c/A/c/d/e/f/ (6:4:6a/g/f/e/d/c/ | %71
 (6:4:6d/e/=e/f/e/f/ (6:4:6g/a/b/a/g/f/ (6:4:6b/_c'/b/a/b/c'/ (6:4:6f'/b/a/g/a/g/ | %72
 (6:4:6f/e/=d/B/A/=G/ (6:4:6A/F/A/=A/B/_c/ (6:4:6B/A/B/=c/d/g/ (6:4:6a/f/e/d/_c/B/ | %73
 (6:4:6c/=d/e/=e/_e/=e/ (6:4:6f/e/f/g/a/=a/ (6:4:6b/_c'/b/_a/_c/B/ (6:4:6g/a/g/f/B/A/ | %74
 [Gg]) (3(g/e/=A/ (6:4:6B/G/B/c/=d/e/ (6:4:6d/B/d/e/f/g/ (6:4:6b/a/g/f/e/B/ | %75
 (6:4:6c/B/c/g/b/g/ (6:4:6f/e/c/e/g/e/ (6:4:6d/c/B/!<(!c/e/d/ (6:4:6f/e/g/f/g/b/!<)! | %76
!p!"_cresc." [fa]) (3(a/f/=B/ (6:4:6c/A/c/=d/=e/f/ (6:4:6e/c/e/f/=g/a/ (6:4:6c'/b/a/g/f/c/ | %77
!mf! (6:4:6=d/_c/d/a/_c'/a/ (6:4:6g/f/d/f/a/f/ (6:4:6e/d/=c/!<(!d/f/e/ (6:4:6=g/f/a/g/a/_c'/!<)! | %78
!f! [Bgb]) (3(B/A/B/ (6:4:6c/d/e/d/c/d/ (6:4:6e/f/g/!<(!f/e/f/ (6:4:6g/a/b/a/b/_c'/!<)! | %79
!f! [Bab]) (3(B/A/B/ (6:4:6c/=d/e/d/c/d/ (6:4:6e/f/g/!<(!f/e/f/ (6:4:6g/a/b/a/b/_c'/!<)! | %80
!ff! [Bgb]) (3([GB]/_c/d/ (6:4:6[Ac]/d/e/[Bd]/e/f/ (6:4:6[ce]/f/g/[df]/g/a/ (6:4:6[eg]/a/b/[fa]/b/_c'/ | %81
"_dim." (6:4:6[gb]/_c'/d'/)([gb]/c'/d'/ (6:4:6[ac']/d'/e'/[bd']/e'/f'/)!8va(! (6:4:6([c'e']/f'/g'/[d'f']/g'/a'/ (6:4:6[e'g']/a'/b'/[f'a']/b'/_c''/) | %82
 (6:4:6([g'b']/f'/e'/[f'a']/e'/=d'/) (6:4:6([g'b']/f'/e'/[f'a']/e'/d'/) (6:4:6([g'b']/f'/e'/[f'a']/e'/d'/) (6:4:6([g'b']/f'/e'/[f'a']/e'/d'/) | %83
!pp! (6:4:6([g'b']/f'/e'/=d'/e'/_d'/ (6:4:6_c'/!8va)!b/a/g/f/e/) (6:4:6([gb]/f/e/=d/e/_d/ (6:4:6_c/B/A/G/F/E/) | %84
"_dim." z (3(_C/[DF]/=D/ (6:4:6[EG]/F/[GB]/_c/[df]/=d/ (6:4:6[eg]/f/[gb]/_c'/[d'f']/=d'/!8va(! (6:4:6[e'g']/f'/[g'b']/_c''/[d''f'']/=d''/ | %85
!ppp! [e''g''])!8va)! z z2 z4 |[Q:1/4=72] z!mf! (GB,=C =D E2 F- | %87
 F!tenuto!G !tenuto!A!tenuto!=A[Q:1/4=60] !tenuto!B"_dim." !>!_c2[Q:1/4=48]!pp! !tenuto!=c) | %88
[Q:1/4=72]"^Tempo I."!mf! z (dF=G =A B2 c- | cd e=e f g2 f-) | f(e dc e f2 e-) | e(d cd) (d e2 d) | %92
 !arpeggio!!tenuto![DFBd]4 z4 | !arpeggio!!tenuto![FAdf]4 z4 | !arpeggio!!tenuto![Begb]4 z4 | %95
 !arpeggio!!tenuto![dg=ad']4 z4 | z!p! (B=G=A B c2 d-) | d(B =G=A B c2 d-) | %98
 d !tenuto!c2 !tenuto!B2 !tenuto!=A!tenuto!=G!tenuto!A | %99
"_cresc." (=AB) (3(cde) (e=e) (3!tenuto!e!tenuto!f!tenuto!b | %100
[M:7/4]!f! (=a2 =Bc (3:2:2f2 =e)!<(! (3(=d=ef (3:2:2=g2 f)!<)!!ff!!>(! (3(efg (3=agf)!>)! | %101
[M:4/4]!mf! (3(!tenuto!=efc') c'6 | (3(!tenuto!_a=af') f'6 | %103
!ppp! z!8va(! (.[f'd'']/.[c'f']/ .[=ad']/.[bf']/.[c'b']/.[d'f']/ .[gb]/.[_ac']/.[=ag']/.[be']/!8va)! .[=dg]/.[eb]/.[fe']/.[gb]/) | %104
 z (.[fd']/.[cf]/ .[=Ad]/.[Bf]/.[cb]/.[df]/ .[GB]/.[_Ac]/.[=Ag]/.[Be]/ .[=DG]/.[EB]/.[Fe]/.[GB]/) | %105
 z (.[Fd]/.[CF]/ .[=A,D]/.[B,F]/.[CB]/.[DF]/) z (.[Fd]/.[CF]/ .[A,D]/.[B,F]/.[CB]/.[DF]/) | %106
 z (.[Fd]/.[CF]/ .[=A,D]/.[B,F]/.[CB]/.[DF]/) (E/D/C/B,/[I:staff +1] G,/F,/E,/D,/ | %107
[Q:1/4=70]"_rit." E,/D,/[Q:1/4=65]C,/B,,/[Q:1/4=60] G,,/F,,/[Q:1/4=55]E,,/D,,/)[Q:1/4=50][I:staff -1] z4 | %108
[K:bass]!p! !fermata![D,F,B,D]8 |] %109
V:2
!p!!ped! (3B,, ([F,D]!ped-up![B,E] (3[DF][B,E][F,D]) (3z ([F,D][B,E] (3[DF][B,E][F,D]) | %1
!ped! (3B,,, ([F,D]!ped-up![B,E] (3[DF][B,E][F,D]) (3z ([B,=E][DF] (3[_EG][DF][F,E]) | %2
!ped! (3B,, ([F,D]!ped-up![=A,F][K:treble] (3[B,G][C=A][DB]) (3z ([DB][Ec] (3[Fd][Ec][DB]) | %3
[K:bass]!ped! (3B,,, ([G,E]!ped-up![A,F] (3[B,G][A,F][G,E]) (3z[K:treble] ([B,G][FA] (3[GB][FA][B,G]) | %4
[K:bass]!ped! (3B,, ([G,E]!ped-up![A,F] (3[B,G][A,F][G,E]) (3z[K:treble] ([=A,G][E_A] (3[G=A][E_A][__B,G]) | %5
[K:bass]!ped! (3B,,, ([F,D]!ped-up![B,E] (3[DF][B,E][F,D]) (3z ([B,=E][DF] (3[_EG][DF][F,E]) | %6
!ped! (3B,, ([F,D]!ped-up![=A,F][K:treble] (3[B,G][C=A][DB]) (3z ([DB][Ec] (3[Fd][Ec][DB]) | %7
[K:bass]!ped! (3D,, ([G,E]!ped-up![A,F] (3[B,G][A,F][G,E]) (3z ([A,G][CA] (3[GB][CA][A,G]) | %8
!ped! (3D,, ([B,D]!ped-up![A,E] (3[DF][A,E][DF]) (3z ([A,F][EG] (3[FA][EG][A,F]) | %9
!ped! (3D, ([B,D]!ped-up![A,E] (3[DF][A,E][B,D]) (3z ([A,F][EG] (3[FA][EG][A,F]) | %10
!ped! (3_C, ([F,=D]!ped-up![A,E] (3[EG][A,F][G,E][K:treble] (3[E_c][=DB][Ec] (3[EG][F,F][A,E]) | %11
[K:bass]!ped! (3B,, ([F,=D]!ped-up![A,E] (3[DF][A,E][F,D]) (3z ([A,F][DG] (3[FA][DG][A,F]) | %12
!ped! (3B,,, ([B,A]!ped-up![FB] (3[A_c][=DB][B,A] (3[DG][A,=E][DF] (3[_C_E][A,_D][B,=D]) | %13
!ped! (3E,, ([G,E]!ped-up![A,F] (3[B,G][A,F][G,E])[K:treble] (3z ([B,G][FA] (3[GB][C=A][_C_A]) | %14
[K:bass]!ped! (3[A,,,A,,] ([A,G]!ped-up![CA] (3[GB][CA][A,G]) (3([GB][EA][B,G] (3[CE][B,D][E,C]) | %15
!ped! (3[A,,,A,,][K:treble] ([A,F]!ped-up![C=G] (3[FA][CG][A,F]) (3z ([CA][GB] (3[Ac][=D=B][_D_B]) | %16
[K:bass]!ped! (3[B,,,B,,][K:treble] ([B,A]!ped-up![=DB] (3[A_c][DB][B,A]) (3([Ac][FB][_CA] (3[DF][B,E][F,D]) | %17
[K:bass]!ped! (3!arpeggio![G,,D,G,B,_D][K:treble] ([B,G]!ped-up![DA] (3[GB][DA][B,G] (3[B,F][G,E][B,D])[K:bass] (3([E,C][=D,_C]G,,) | %18
!ped! (3!arpeggio![F,,=D,A,B,] ([A,F]!ped-up![=DG] (3[FA][DG][A,F] (3[_CE][F,D][A,C] (3[D,B,][_C,E,][B,,F,]) | %19
!ped! (3[E,,,E,,][K:treble] ([G,E]!ped-up![B,F] (3[EG][B,A][E=A] (3[GB][Ec][G=d] (3[Be][_Af][Ge] | %20
 [Bg]) z z2 z4 |[K:bass] z8 | z4 z2!>(! !tenuto![F,=A,E]2!>)! | B,,,2 (F,2 [DF]2 F,2) | %24
 B,,,2 (F,2 [DF]2 F,2) | B,,,2 (E,2 [B,EB]2 E,2) | B,,,2 (G,2 [=A,E=A]2 F,2) | %27
 B,,,2 (F,2 [B,D]2 F,2) | B,,,2 (F,2 [B,F]2 F,2) | B,,,2 (G,2 [=A,E]2 G,2) | B,,,2 (G,2 E2 G,2) | %31
 B,,,2 (F,2 [DF]2 F,2) | B,,,2 (F,2 [B,D]2 F,2) | B,,,2 ([DF]2 [E_G]2 [G,=A,]2) | %34
 B,,,2 ([DF]2 [E_G]2 [G,=A,]2) | B,,,2 (F,2 [DF]4) | z8 || %37
[K:Gb][M:7/4] D,4- (3:2:2D,2 =D, E,6 __E,2 | [G,,D,]2 ([G,B,]4 [=G,D]2 [A,C]2) _G,4 | %39
[M:3/4] ([E,G,]4 F,2) |[M:7/4] D,4- (3:2:2D,2 =D, E,6 __E,2 |[M:4/4] [G,,D,]2 [G,B,]6 | %42
 [F,B,D]4 [F,E]2 [B,DF]2 | %43
[M:7/4]!ped! !arpeggio!!>![A,,E,C] !tenuto!E (!>!=G,!ped-up!A,) (3(B,C=D (3:2:2F2 E) z !tenuto!A (GE)!ped! (!>![D,A,F]_D)!ped-up! | %44
!ped! !arpeggio!!>![A,,E,C] !tenuto!E (!>!=G,!ped-up!A,) (3(B,C=D FE) !>!B!>!A (3(!>!GFE)!ped! (!>![D,A,F]_D)!ped-up! | %45
[M:6/4]!ped! !>![=B,,^F,=D] !tenuto!^F (!>!^A,!ped-up!=B,) (3(^CDF =A^G) z !>!=A!ped! (!>![=E,=B,^G]=E)!ped-up! | %46
[M:5/4]!ped! !>![=B,,^F,=D] !tenuto!^F (!>!^A,!ped-up!=B,) (3(^CDF =B=A)!ped! (!>![=E,=B,^G]=E)!ped-up! | %47
 (=E,6 _E,4) | (E,6 =D,4) |[M:4/4] (=D,4 _D,4) |[M:7/4] D,4- (3:2:2D,2 =D, E,6 __E,2 | %51
 [G,,D,]2 ([G,B,]4 [=G,D]2 [A,C]2) _G,4 |[M:3/4] ([E,G,]4 F,2) |[M:7/4] [G,,D,B,]6- [G,,D,B,]8- | %54
 [G,,D,B,] x3 x4 x24 | x4[K:treble] !arpeggio![Gd=eb]8- x8 x4 x4 | z16 z4 | %57
 x16 x8[K:bass] [=C,G,]4 ||[K:Db][M:4/4] [F,,,F,,C,F,] z (C,2 =A,2 [B,D]2) | %59
 [F,,,F,,]2 (C,2 =A,2 [B,D]2) | [F,,C,=A,] z z2 z4 | !tenuto!D8 | B,,,2 (F,2 [B,D]2 F,2) | %63
 B,,,2 (F,2 [DB]2 F,2) | B,,,2 (G,2 [=A,E=A]2 G,2) | B,,,2 (G,2 [=A,E]2 F,2) | %66
 B,,,2 (F,2 [DF]2 F,2) | B,,,2 (F,2 [DB]2 F,2) | D,,2 (A,2 [B,GB]2 A,2) | %69
 D,,2 (A,2 [=E=G]2 [FA]2) | D,,2 (A,2 [DF]2 A,2) | _C,,2 (A,2 [DF]2 A,2) | B,,,2 (A,2 [=DF]2 A,2) | %73
 =D,,2 (B,2 [FA]2 B,2) | E,,2 (B,2 [EG]2 B,2) | [A,,,A,,]2 (G,2 [EG]2 G,2) | %76
 [F,,,F,,]2 ([C,C]2 [A,FA]2 [C,C]2) | [B,,,B,,]2 (A,2 [FA]2 A,2) | %78
 [G,,,G,,]2 ([D,B,]2 [B,GB]2 [D,B,]2) | [F,,,F,,]2 ([=D,A,B,]2 [B,AB]2 [D,A,B,]2) | %80
 [E,,,E,,]2 ([B,,E,B,]2 [B,GB]2 [B,,E,B,]2) | %81
[K:treble] z (3(f/e/d/ (6:4:6e/d/_c/d/c/B/) (6:4:6(c/B/A/)(A/G/F/ (6:4:6G/F/E/F/E/=D/) | %82
 (6:4:6(E/F/G/A/B/_c/ (6:4:6=c/=d/e/f/g/a/ (6:4:6g/a/b/a/b/_c'/ (6:4:6b/a/g/a/g/f/) | %83
 (6:4:6(e/f/g/a/g/f/ (6:4:6[Ae]/d/_c/B/A/G/) (6:4:6(E/F/G/A/G/F/[K:bass] (6:4:6[A,E]/D/_C/B,/A,/G,/) | %84
 (6:4:6(E,,/B,,/G,/A,,/F,/_C/ (6:4:6E,/B,/G/A,/[I:staff -1]F/_c/ (6:4:6E/B/g/A/f/_c'/!8va(! (6:4:6e/b/g'/a/f'/_c''/ | %85
 [e'b'])!8va)![I:staff +1] z z2 z4 | z8 | z4 z2 F,,2 |!ped! !arpeggio![B,,,F,,B,,]4!ped-up! z4 | %89
!ped! !arpeggio![D,,A,,D,]4!ped-up! z4 |!ped! !arpeggio![E,,B,,E,]4!ped-up! z4 | %91
!ped! !arpeggio![G,,D,G,]4!ped-up! z4 |!ped! !arpeggio![B,,F,B,]4!ped-up! z4 | %93
!ped! !arpeggio![D,A,D]4!ped-up! z4 |!ped! !arpeggio![E,B,EG]4!ped-up! z4 | %95
[K:treble]!ped! z2 (E2!ped-up! [G=A]2 E2) |!ped! !tenuto![B,FBd]8[K:bass]!ped-up! | %97
 B,,2 ([F,DF]2 [E_G]2 [G,=A,]2) | B,,2 (F,2 [DF]4) | z8 |[M:7/4][K:treble] F6 F4 F2- (3F=G^G | %101
[M:4/4] [CF=A]8 | [F,CF]8 |[K:bass] B,,,2 ([F,B,D]2 [G,B,E]2 [B,EG]2) | %104
 B,,,2 ([F,B,D]2 [G,B,E]2 [G,B,]2) | B,,,2 F,2 B,,,2 F,2 | B,,,2 F,2 (C/B,/E,/D,/ E,/D,/G,,/F,,/ | %107
 C,/B,,/E,,/D,,/ E,,/D,,/C,,/B,,,/) (!tenuto![=E,,,=E,,]3 [F,,,F,,]) | !fermata![B,,,,B,,,]8 |] %109
V:3
 x8 | x8 | x8 | x8 | x8 | x8 | x8 | x8 | x8 | x8 | x8 | x8 | x8 | x8 | x8 | x8 | x8 | x8 | x8 | %19
 x8 | x8 | x8 | x8 | x8 | !tenuto!B4 !tenuto!=A4 | !tenuto!_A4 !tenuto!=G4 | %26
 !tenuto!_G4 !tenuto!F4- | F4 !tenuto!=E4 | !tenuto!_E4 !tenuto!D4 | !tenuto!C4 !tenuto!_C4 | %30
 !tenuto!B,4 !tenuto!=A,7/2 !tenuto!B,/ | !tenuto!B,8 | x8 | x8 | x8 | x8 | x8 || %37
[K:Gb][M:7/4] !tenuto!B,6 !tenuto!_C4 !tenuto!=C4 | %38
 !tenuto!D2 (!tenuto!=D2 !tenuto!E2 !tenuto!_F2 !tenuto!E2) (!tenuto!__E2 !tenuto!_D2) | %39
[M:3/4] (!tenuto!=C4 !tenuto!_C2) |[M:7/4] !tenuto!B,6 !tenuto!_C4 !tenuto!=C4 | %41
[M:4/4] !tenuto!D2 (!tenuto!=D2 !tenuto!E2 =E2 | %42
 !tenuto!F2 !tenuto!=G2 !tenuto!=A2 (3:2:2!tenuto!A2 B) |[M:7/4] x10 [Ac]2 [Ac]2 | %44
 x10 [Ac]2 [Ac]2 |[M:6/4] x8 [=B=d]2 [Bd]2 |[M:5/4] x6 [=B=d]2 [Bd]2 | x6- _D4 | =C6- C4 | %49
[M:4/4] =B,4- x4 |[M:7/4] !tenuto!B,6 !tenuto!_C4 !tenuto!=C4 | %51
 !tenuto!D2 (!tenuto!=D2 !tenuto!E2 !tenuto!_F2 !tenuto!E2) (!tenuto!__E2 !tenuto!_D2) | %52
[M:3/4] (!tenuto!=C4 !tenuto!_C2) |[M:7/4] x14 | x16!8va(! x16 | x28 | x4!8va)! x641/40 | %57
 x4[K:bass] x16[K:treble] x4 B,4 ||[K:Db][M:4/4] x8 | x8 | x8 | x8 | x8 | x8 | x8 | x8 | x8 | x8 | %68
 x8 | x8 | x8 | x8 | x8 | x8 | x8 | x8 | x8 | x8 | x8 | x8 | x8 | x4!8va(! x4 | x8 | %83
 x7/3!8va)! x17/3 | x6!8va(! x2 | x!8va)! x7 | x8 | z4 z2 [=A,E]2 | %88
[I:staff +1] !arpeggio!!tenuto![D,F,B,D]4[I:staff -1] z4 | %89
[I:staff +1] !arpeggio!!tenuto![F,A,DF]4[I:staff -1] z4 | !arpeggio!!tenuto![G,B,EG]4 z4 | %91
 !arpeggio!!tenuto![=A,DG=A]4 z4 | z (cB=G =A B2 c) | z (de=e f g2 f) | z (edc e f2 e) | %95
 z (dcd) (d e2 d) | !tenuto![fbd'f']8 | x8 | x8 | x8 |[M:7/4] =A6 =B4 =B4 |[M:4/4] c8 | [=Ae]8 | %103
 x!8va(! x5!8va)! x2 | x8 | x8 | x8 | x8 |[K:bass] x8 |] %109
V:4
 x8 | x8 | x2[K:treble] x6 |[K:bass] x14/3[K:treble] x10/3 |[K:bass] x14/3[K:treble] x10/3 | %5
[K:bass] x8 | x2[K:treble] x6 |[K:bass] x8 | x8 | x8 | x4[K:treble] x4 |[K:bass] x8 | x8 | %13
 x4[K:treble] x4 |[K:bass] x8 | x2/3[K:treble] x22/3 |[K:bass] x2/3[K:treble] x22/3 | %17
[K:bass] x2/3[K:treble] x16/3[K:bass] x2 | x8 | x2/3[K:treble] x22/3 | x8 |[K:bass] x8 | x8 | x8 | %24
 x8 | x8 | x8 | x8 | x8 | x8 | x8 | x8 | x8 | x8 | x8 | x8 | x8 ||[K:Gb][M:7/4] G,,6 G,,8 | %38
 x10 C,2 B,,2 |[M:3/4] (A,,4 D,,2) |[M:7/4] G,,6 G,,8 |[M:4/4] x8 | x8 |[M:7/4] x14 | x14 | %45
[M:6/4] x12 |[M:5/4] x10 | =A,,6- A,,4 | _A,,6- A,,4 |[M:4/4] =G,,6 _D,,2 |[M:7/4] _G,,6 G,,8 | %51
 x10 C,2 B,,2 |[M:3/4] (A,,4 D,,2) |[M:7/4] x14 | x32 | x4[K:treble] x24 | x20 | x24[K:bass] x4 || %58
[K:Db][M:4/4] !arpeggio!x x7 | x8 | x8 | x8 | x8 | x8 | x8 | x8 | x8 | x8 | x8 | x8 | x8 | x8 | %72
 x8 | x8 | x8 | x8 | x8 | x8 | x8 | x8 | x8 |[K:treble] x8 | x8 | x6[K:bass] x2 | x6!8va(! x2 | %85
 x!8va)! x7 | x8 | x8 | z2 (F,2 [DF]2 F,2) | z2 (F,2 [DF]2 F,2) | z2 (B,2 [GB]2 B,2) | %91
 z2 (=A,2 [EG]2 A,2) | z2 (F,2 [DF]2 F,2) | z2 (A,2 [DA]2 A,2) | z2 (B,2 [GB]2 B,2) | %95
[K:treble] !arpeggio![G,DG=A]4 z4 | z2[K:bass] ([DF]2 [E_G]2 [G,=A,]2) | x8 | x8 | x8 | %100
[M:7/4][K:treble] C4 ^C2 [=C=D]4 [CD]4 |[M:4/4] x8 | x8 |[K:bass] x8 | x8 | x8 | x8 | x8 | x8 |] %109
V:5
 x8 | x8 | x8 | x8 | x8 | x8 | x8 | x8 | x8 | x8 | x8 | x8 | x8 | x8 | x8 | x8 | x8 | x8 | x8 | %19
 x8 | x8 | x8 | x8 | x8 | x8 | x8 | x8 | x8 | x8 | x8 | x8 | x8 | x8 | x8 | x8 | x8 | x8 || %37
[K:Gb][M:7/4] x14 | x14 |[M:3/4] x6 |[M:7/4] x14 |[M:4/4] x8 | x8 |[M:7/4] x14 | x14 |[M:6/4] x12 | %46
[M:5/4] x10 | ^C6 x4 | x10 |[M:4/4] x4 _C4 |[M:7/4] x14 | x14 |[M:3/4] x6 |[M:7/4] x14 | %54
 x16!8va(! x16 | x28 | x4!8va)! x641/40 | x4[K:bass] x16[K:treble] x8 ||[K:Db][M:4/4] x8 | x8 | %60
 x8 | x8 | x8 | x8 | x8 | x8 | x8 | x8 | x8 | x8 | x8 | x8 | x8 | x8 | x8 | x8 | x8 | x8 | x8 | %79
 x8 | x8 | x4!8va(! x4 | x8 | x7/3!8va)! x17/3 | x6!8va(! x2 | x!8va)! x7 | x8 | x8 | x8 | x8 | %90
 x8 | x8 | x8 | x8 | x8 | x8 | x8 | x8 | x8 | x8 |[M:7/4] x14 |[M:4/4] x8 | x8 | %103
 x!8va(! x5!8va)! x2 | x8 | x8 | x8 | x8 |[K:bass] x8 |] %109

